src/assets/filled/Lifebuoy.svg

<?xml version="1.0" encoding="UTF-8"?>
<svg width="24" height="24" viewBox="0 0 24 24" xmlns="http://www.w3.org/2000/svg">
 <path d="m7.5 12c0-0.6631 0.14791-1.2929 0.41078-1.8628 0.2035-0.44127 0.16848-0.97796-0.17512-1.3216l-2.5771-2.5771c-0.41006-0.41006-1.0862-0.38853-1.4172 0.08765-1.1204 1.612-1.7714 3.5677-1.7714 5.6738 0 2.1044 0.64997 4.0587 1.7628 5.67 0.33001 0.4778 1.0072 0.5009 1.4183 0.0908l2.5831-2.5765c0.34437-0.3435 0.37979-0.8808 0.17618-1.3225-0.26258-0.5697-0.41032-1.1991-0.41032-1.8618z"/>
 <path d="m12 7.5c0.6631 0 1.2928 0.14791 1.8628 0.41078 0.4412 0.2035 0.9779 0.16848 1.3215-0.17512l2.5492-2.5492c0.4093-0.40926 0.3888-1.0839-0.0859-1.415-1.6061-1.1204-3.5632-1.7714-5.6776-1.7714-2.1042 0-4.0513 0.64985-5.6603 1.7625-0.47762 0.33029-0.50074 1.0074-0.09064 1.4186l2.5611 2.5676c0.3459 0.34678 0.88786 0.38005 1.3314 0.17237 0.5738-0.26865 1.2121-0.42105 1.8884-0.42105z"/>
 <path d="m19.89 5.9063c-0.1777-0.22963-0.5151-0.24158-0.7206-0.03653l-3.2188 3.2105c-0.1734 0.17295-0.1933 0.44464-0.0694 0.65588 0.3904 0.66548 0.6187 1.4362 0.6187 2.264 0 0.8281-0.2284 1.599-0.619 2.2645-0.1238 0.211-0.1041 0.4824 0.0689 0.6554l3.2196 3.2196c0.2055 0.2055 0.5432 0.1937 0.721-0.0362 1.3052-1.6883 2.0795-3.8064 2.0795-6.1033 0-2.297-0.7744-4.4068-2.0799-6.0939z"/>
 <path d="m12 16.5c-0.8281 0-1.599-0.2284-2.2645-0.619-0.21101-0.1238-0.4824-0.1041-0.6554 0.0689l-3.2496 3.2496c-0.20549 0.2055-0.19374 0.5432 0.03616 0.721 1.6883 1.3052 3.8065 2.0795 6.1034 2.0795 2.3071 0 4.4269-0.775 6.1078-2.0892 0.2279-0.1783 0.2386-0.5144 0.0339-0.719l-3.2246-3.2246c-0.1718-0.1718-0.4408-0.1926-0.6513-0.0712-0.6631 0.3826-1.4245 0.604-2.2358 0.604z"/>
</svg>

<svg width="24" height="24" viewBox="0 0 24 24"  xmlns="http://www.w3.org/2000/svg">
<path d="M7.49997 12C7.49997 11.3369 7.64788 10.7071 7.91075 10.1372C8.11425 9.69593 8.07923 9.15924 7.73563 8.81564L5.15856 6.23857C4.7485 5.82851 4.07238 5.85004 3.74139 6.32622C2.62095 7.93817 1.96997 9.89396 1.96997 12C1.96997 14.1044 2.61994 16.0587 3.73274 17.67C4.06275 18.1478 4.7399 18.1709 5.15104 17.7608L7.73411 15.1843C8.07848 14.8408 8.1139 14.3035 7.91029 13.8618C7.64771 13.2921 7.49997 12.6627 7.49997 12Z" />
<path d="M12 7.5C12.6631 7.5 13.2928 7.64791 13.8628 7.91078C14.304 8.11428 14.8407 8.07926 15.1843 7.73566L17.7335 5.18643C18.1428 4.77717 18.1223 4.10256 17.6476 3.77141C16.0415 2.65097 14.0844 2 11.97 2C9.86577 2 7.91868 2.64985 6.30974 3.76248C5.83212 4.09277 5.809 4.76993 6.2191 5.18107L8.78017 7.74868C9.12607 8.09546 9.66803 8.12873 10.1116 7.92105C10.6854 7.6524 11.3237 7.5 12 7.5Z" />
<path d="M19.89 5.90633C19.7123 5.6767 19.3749 5.66475 19.1694 5.8698L15.9506 9.08034C15.7772 9.25329 15.7573 9.52498 15.8812 9.73622C16.2716 10.4017 16.4999 11.1724 16.4999 12.0002C16.4999 12.8283 16.2715 13.5992 15.8809 14.2647C15.7571 14.4757 15.7768 14.7471 15.9498 14.9201L19.1694 18.1397C19.3749 18.3452 19.7126 18.3334 19.8904 18.1035C21.1956 16.4152 21.9699 14.2971 21.9699 12.0002C21.9699 9.7032 21.1955 7.5934 19.89 5.90633Z" />
<path d="M12 16.4999C11.1719 16.4999 10.401 16.2715 9.73546 15.8809C9.52445 15.7571 9.25306 15.7768 9.08006 15.9498L5.83049 19.1994C5.625 19.4049 5.63675 19.7426 5.86665 19.9204C7.55497 21.2256 9.67312 21.9999 11.97 21.9999C14.2771 21.9999 16.3969 21.2249 18.0778 19.9107C18.3057 19.7324 18.3164 19.3963 18.1117 19.1917L14.8871 15.9671C14.7153 15.7953 14.4463 15.7745 14.2358 15.8959C13.5727 16.2785 12.8113 16.4999 12 16.4999Z" />
</svg>
